X: 11301
T: Eagle's Nest, The
R: reel
M: 4/4
K: Dmajor
|D3 F A3 F|GBAG FDDA,|DEFG A/B/A/^G/AF|GBAG FAEA|
DFAD FADc|dcBA GEEG|FGAF ~G3 B|ABAG F/G/A Dd|
cdec d2 Ad|FdAd FdDd|cdec d2 e/f/g|afge dcAd|
B/c/dec d/c/d Ad|FdEd D3 g|fgaf gfdc|A/A/A AG FAEA:|

